X:1
T:Shanghai rooster
M:2/4
L:1/16
K:Em
e(f|gf)e(d Bd)e(f|gf)ga b2e(f|gf)e(d Bc)d(B|cB)AF G2 e(f|!
|gf)e(d Bd)e(f|gf)ga b2e(f|gf)e(d BGBd | cGAF G2:|]!
GE|D2G2 BGBG |E2G2 [E4c4]| DEGA BGBG | ABAG FDEF |!
DEGA BGBG | E2G2 [E4c4] | DEFG AcBA | GEDB, G,2:|]!
